img/svg-fire.svg

<svg width="14" height="19" viewBox="0 0 14 19" fill="none" xmlns="http://www.w3.org/2000/svg">
<path fill-rule="evenodd" clip-rule="evenodd" d="M10.3343 14.1005C10.5567 13.2873 10.125 11.6155 10.125 11.6155C10.125 11.6155 9.81189 12.9775 9.32265 13.4808C8.90528 13.9102 8.39393 14.208 7.66057 14.2863C8.26016 13.995 8.67251 13.3878 8.67251 12.6859C8.67251 11.7006 7.85998 10.9018 6.85767 10.9018C5.85537 10.9018 5.0428 11.7006 5.0428 12.6859C5.0428 12.955 5.10344 13.2102 5.21197 13.439C4.58506 12.9395 4.48649 12.1388 4.48649 12.1388C4.48649 12.1388 3.78646 15.0452 5.71534 16.4123C7.64419 17.7795 11.4227 16.6044 11.4227 16.6044C11.4227 16.6044 6.0154 20.4091 2.0085 16.2681C-1.44312 12.701 1.10762 8.00475 1.10762 8.00475C1.10762 8.00475 0.997463 8.4404 0.997463 8.94613C0.997463 9.45185 1.27166 9.83663 1.27166 9.83663C1.27166 9.83663 2.08957 8.11261 2.72611 7.41149C3.32855 6.74795 4.08374 6.20977 4.73603 5.74494C5.23813 5.38712 5.67927 5.07275 5.94273 4.77811C7.39387 3.15549 6.5041 0.199951 6.5041 0.199951C6.5041 0.199951 8.13993 1.64206 8.59661 3.50456C8.7707 4.21452 8.65869 5.0223 8.55857 5.74466C8.396 6.91733 8.26463 7.8649 9.43902 7.80341C11.3368 7.70402 9.68768 4.77811 9.68768 4.77811C9.68768 4.77811 13.9926 7.04076 13.671 10.998C13.3494 14.9553 8.9655 15.8549 8.9655 15.8549C8.9655 15.8549 10.1118 14.9137 10.3343 14.1005Z" fill="#F66D6D"/>
</svg>

<svg width="14" height="19" fill="none" xmlns="http://www.w3.org/2000/svg"><path fill-rule="evenodd" clip-rule="evenodd" d="M10.334 14.1c.223-.813-.209-2.484-.209-2.484s-.313 1.361-.802 1.865c-.418.43-.93.727-1.662.805a1.782 1.782 0 0 0 1.012-1.6c0-.985-.813-1.784-1.815-1.784-1.003 0-1.815.799-1.815 1.784 0 .269.06.524.169.753-.627-.5-.726-1.3-.726-1.3s-.7 2.906 1.23 4.273c1.928 1.367 5.707.192 5.707.192s-5.408 3.805-9.415-.336c-3.451-3.567-.9-8.263-.9-8.263s-.11.435-.11.941.274.89.274.89.818-1.723 1.454-2.425c.603-.663 1.358-1.201 2.01-1.666.502-.358.943-.672 1.207-.967C7.393 3.155 6.504.2 6.504.2S8.14 1.642 8.597 3.505c.174.71.062 1.517-.038 2.24-.163 1.172-.294 2.12.88 2.058 1.898-.099.249-3.025.249-3.025s4.305 2.263 3.983 6.22c-.322 3.957-4.705 4.857-4.705 4.857s1.146-.941 1.368-1.755Z" fill="#F66D6D"/></svg>
